X:301
T:Green Willow
C:Trad. English
L:1/8
M:6/8
S:Colin Hume's website,  colinhume.com  - chords can also be printed below the stave.
Q:3/8=120
K:A
P:A
"A"A3 "E7"B2G | "A"A3 "/"E2F | "G"=GAG "Bm"F2D | "A"E3- "E7"E2E |\
"A"A3 "E7"B2G | "A"A2B "/"c2d | "A/C#"e2e "B7/D#"fe^d | "E"e3- "/"e=de |
P:B
"D"f2f "/"def | "E7"e2B "/"B2c | "A"e2A "/"A2B | "F#m"c2A "E7"GFE |\
"A"A3 "E7"B2G | "A"A2B "F#m"c2d | "E7"efe "/"dcB | "A"A3- "/"A3 |]

